src/assets/img/play.svg

<svg  viewBox="0 0 30 30" xmlns="http://www.w3.org/2000/svg">
<path d="M20.4224 12.881C21.8189 13.9483 21.8189 16.0511 20.4224 17.1184L14.3158 21.7857C12.561 23.1269 10.0298 21.8756 10.0298 19.667V10.3325C10.0298 8.12385 12.561 6.87259 14.3158 8.21378L20.4224 12.881ZM18.8031 14.9997L12.6965 10.3325L12.6965 19.667L18.8031 14.9997Z"/>
<path d="M14.9987 2.99967C8.37128 2.99967 2.9987 8.37226 2.9987 14.9997C2.9987 21.6271 8.37128 26.9997 14.9987 26.9997C21.6261 26.9997 26.9987 21.6271 26.9987 14.9997C26.9987 8.37226 21.6261 2.99967 14.9987 2.99967ZM0.332031 14.9997C0.332031 6.8995 6.89852 0.333008 14.9987 0.333008C23.0989 0.333008 29.6654 6.8995 29.6654 14.9997C29.6654 23.0998 23.0989 29.6663 14.9987 29.6663C6.89852 29.6663 0.332031 23.0998 0.332031 14.9997Z"/>
</svg>

<svg viewBox="0 0 30 30" xmlns="http://www.w3.org/2000/svg"><path d="M20.422 12.881a2.667 2.667 0 0 1 0 4.237l-6.106 4.668c-1.755 1.34-4.286.09-4.286-2.119v-9.335c0-2.208 2.531-3.46 4.286-2.118l6.106 4.667ZM18.803 15l-6.107-4.668v9.335L18.803 15Z"/><path d="M14.999 3c-6.628 0-12 5.372-12 12 0 6.627 5.372 12 12 12 6.627 0 12-5.373 12-12 0-6.628-5.373-12-12-12ZM.332 15C.332 6.9 6.899.333 14.999.333S29.665 6.899 29.665 15c0 8.1-6.566 14.666-14.666 14.666C6.899 29.666.332 23.1.332 15Z"/></svg>
